icon-svg/ezviz.svg

<svg xmlns="http://www.w3.org/2000/svg" fill="#44739e" viewBox="0 0 24 24"><path d="m14.906 17.74-1.588 2.76-.992-2.757h-1.339l1.444 3.791a.586.586 0 0 0 .5.283h.7a.578.578 0 0 0 .505-.29l2.014-3.586v-.2zm-.9 3.708a.423.423 0 0 1-.371.212h-.7a.43.43 0 0 1-.372-.21l-1.352-3.55h1.007l1.067 2.969L15 17.9h1zm-8.514-3.711h-2.5a.9.9 0 0 0-1.021.959v2.011c0 .517.123 1.111 1.082 1.111H6.54v-.933H3.659c-.4 0-.4-.107-.4-.2v-.406h3.3V18.7c-.001-.648-.349-.963-1.067-.963m.908 2.387H3.1v.56c0 .191.074.356.556.356h2.729v.623h-3.33c-.775 0-.927-.389-.927-.956V18.7c0-.582.365-.8.866-.8h2.5c.672 0 .911.286.911.809zm-1.271-1.605h-1.7c-.233 0-.33.132-.33.271v.71h2.369v-.71c0-.251-.148-.271-.339-.271m.185.824H3.258v-.553c0-.077.059-.116.175-.116h1.7c.185 0 .185.013.185.116zm5.304-.443a1.11 1.11 0 0 0 .28-.319 1.37 1.37 0 0 0 .062-.559v-.282H6.826v.932H9.2c-.633.591-2.094 1.96-2.231 2.1a1 1 0 0 0-.275.89v.151h4.332v-.891h-2.56c.604-.562 1.957-1.822 2.152-2.022m.255 2.176v.583H6.846c-.008-.453.025-.55.236-.784.168-.175 2.508-2.357 2.508-2.357H6.981V17.9h3.824a1.76 1.76 0 0 1-.048.623 1.01 1.01 0 0 1-.245.27c-.22.227-2.439 2.289-2.439 2.289zm8.539-.153c.61-.568 1.981-1.846 2.147-2.017a1.13 1.13 0 0 0 .285-.324 1.37 1.37 0 0 0 .063-.563v-.279h-4.135v.932h2.372c-.632.591-2.093 1.96-2.231 2.1a1.006 1.006 0 0 0-.275.89v.151h4.332v-.891zm2.407.737h-4.026c-.009-.453.024-.55.235-.784.168-.172 2.508-2.358 2.508-2.358h-2.609V17.9h3.825a1.76 1.76 0 0 1-.049.623 1.02 1.02 0 0 1-.244.27c-.22.227-2.44 2.289-2.44 2.289h2.8zm-5.664-3.722v3.876h1.316V17.74h-1.205zm.154-.043h1.007v3.765h-1.007ZM13.4 12.766a2.682 2.682 0 0 0 1.23-1.449 6.1 6.1 0 0 0 .208-.878 4.9 4.9 0 0 0 .053-1.105l-.053.022a1.766 1.766 0 0 0-.694.546 5.36 5.36 0 0 0-.744 2.864m1.436 4.407c.958.532 2.17.078 3.288-1.374 1.4-1.822.64-3.849-.372-5.149a4.27 4.27 0 0 0-1.211-1.083 4.82 4.82 0 0 1-.214 1.715 5.31 5.31 0 0 1-1.491 2.242 4.29 4.29 0 0 1-1.385.8 4.76 4.76 0 0 0 .706 2.248 2.27 2.27 0 0 0 .679.601m0-4.11a5.08 5.08 0 0 0 1.172-1.89A4.55 4.55 0 0 0 16.2 9.4a1.865 1.865 0 0 0-1.094-.131 5.62 5.62 0 0 1-.27 2.121v.009a2.885 2.885 0 0 1-1.445 1.622c-.005.319 0 .64.027.954a4 4 0 0 0 1.418-.912m-7.499-3.31a5.644 5.644 0 0 1 1.476-3.06 5.2 5.2 0 0 1 .423-.4 5.3 5.3 0 0 1 1.574-.91 4.76 4.76 0 0 0-.6-2.162 2.436 2.436 0 0 0-.976-.868c-.894-.412-2-.088-3.057 1.073-1.494 1.636-.811 3.823.146 5.228a4.95 4.95 0 0 0 1.014 1.099m2.587.068a5.04 5.04 0 0 0 .884-2.81 4.083 4.083 0 0 0-1.5 1.8c-.026.058-.051.116-.074.173A3.2 3.2 0 0 0 9 10.322a1.4 1.4 0 0 0 .238-.054 1.62 1.62 0 0 0 .686-.447m-.861-2.903a5.213 5.213 0 0 0-1.4 3.061 2.187 2.187 0 0 0 1.118.358 3.47 3.47 0 0 1 .324-1.623c.042-.091.085-.18.131-.266a4.143 4.143 0 0 1 1.59-1.709c.018-.334.02-.67 0-1a5.02 5.02 0 0 0-1.59 1.006c-.06.055-.118.114-.173.173m1.272 5.896a3.86 3.86 0 0 1-.484-.354 3.05 3.05 0 0 1-.991-1.594 8.4 8.4 0 0 0-1.138.066 4.75 4.75 0 0 0 .855 1.9 3.7 3.7 0 0 0 1.274.955 4.85 4.85 0 0 0 2.042.455c.122 0 .242 0 .359-.013a2.87 2.87 0 0 0 .406-.981 3.26 3.26 0 0 1-.53.043 3.755 3.755 0 0 1-1.793-.477m-.484-1.881a8.5 8.5 0 0 0-.768-.062 2.76 2.76 0 0 0 .768 1.288 3.17 3.17 0 0 0 2.277.909 2.87 2.87 0 0 0 .571-.055c.049-1.229-1.299-1.88-2.848-2.08m0 4.923a5.27 5.27 0 0 0 2.129-1.276h-.087a5.18 5.18 0 0 1-2.042-.425 4.075 4.075 0 0 1-1.536-1.112l-.007-.008a5.17 5.17 0 0 1-.923-2.053c-.094.017-.187.036-.276.056-2.151.487-3.464 1.9-3.195 3.52.339 1.236 1.72 2.547 4.731 1.678.442-.121.843-.246 1.206-.38m4.021-10.475a3.4 3.4 0 0 1 .458.246A5.292 5.292 0 0 1 16.392 8.6c1.987-.71 3.676-2.593 3.47-3.882C19.566 3.185 17.4 3 15.058 3.3a8.56 8.56 0 0 0-1.186.263 3.447 3.447 0 0 0-2.214 1.59 4.3 4.3 0 0 1 .756-.068 3.59 3.59 0 0 1 1.458.296m.965 3.529a2.91 2.91 0 0 0-.965-1.762 2.64 2.64 0 0 0-.394-.27 2.434 2.434 0 0 0-1.192-.312 2.65 2.65 0 0 0-.889.156c0 .045.01.089.016.134a2.658 2.658 0 0 0 2.459 2.012 4.84 4.84 0 0 0 .965.042m-1.25-2.227a3 3 0 0 1 .285.181 3.078 3.078 0 0 1 1.189 2.029q.279-.027.569-.084c.152-.029.3-.066.456-.11a4.92 4.92 0 0 0-1.945-2.794 2.9 2.9 0 0 0-.269-.153 3.23 3.23 0 0 0-1.458-.33 4.06 4.06 0 0 0-.912.109 2.83 2.83 0 0 0-.121.96 2.85 2.85 0 0 1 .9-.15 2.643 2.643 0 0 1 1.306.342"/></svg>

<?xml version="1.0" encoding="UTF-8"?>
<svg width="24px" fill="#44739e" height="24px" viewBox="0 0 24 24" version="1.1" xmlns="http://www.w3.org/2000/svg" xmlns:xlink="http://www.w3.org/1999/xlink">
            <path d="m 14.906,17.74 -1.588,2.76 -0.992,-2.757 h -1.339 l 1.444,3.791 a 0.586,0.586 0 0 0 0.5,0.283 h 0.7 a 0.578,0.578 0 0 0 0.505,-0.29 l 2.014,-3.586 v -0.2 z m -0.9,3.708 a 0.423,0.423 0 0 1 -0.371,0.212 h -0.7 A 0.43,0.43 0 0 1 12.563,21.45 L 11.211,17.9 h 1.007 L 13.285,20.869 15,17.9 h 1 z M 5.492,17.737 h -2.5 a 0.9,0.9 0 0 0 -1.021,0.959 v 2.011 c 0,0.517 0.123,1.111 1.082,1.111 H 6.54 V 20.885 H 3.659 c -0.4,0 -0.4,-0.107 -0.4,-0.2 v -0.406 h 3.3 V 18.7 C 6.558,18.052 6.21,17.737 5.492,17.737 Z M 6.4,20.124 H 3.1 v 0.56 c 0,0.191 0.074,0.356 0.556,0.356 h 2.729 v 0.623 h -3.33 c -0.775,0 -0.927,-0.389 -0.927,-0.956 V 18.7 c 0,-0.582 0.365,-0.8 0.866,-0.8 h 2.5 c 0.672,0 0.911,0.286 0.911,0.809 z M 5.129,18.519 h -1.7 c -0.233,0 -0.33,0.132 -0.33,0.271 v 0.71 h 2.369 v -0.71 c 0,-0.251 -0.148,-0.271 -0.339,-0.271 z m 0.185,0.824 H 3.258 V 18.79 c 0,-0.077 0.059,-0.116 0.175,-0.116 h 1.7 c 0.185,0 0.185,0.013 0.185,0.116 z M 10.618,18.9 a 1.114,1.114 0 0 0 0.28,-0.319 1.372,1.372 0 0 0 0.062,-0.559 V 17.74 H 6.826 v 0.932 H 9.2 c -0.633,0.591 -2.094,1.96 -2.231,2.1 a 1,1 0 0 0 -0.275,0.89 v 0.151 h 4.332 V 20.922 H 8.466 C 9.07,20.36 10.423,19.1 10.618,18.9 Z m 0.255,2.176 v 0.583 H 6.846 C 6.838,21.206 6.871,21.109 7.082,20.875 7.25,20.7 9.59,18.518 9.59,18.518 H 6.981 V 17.9 h 3.824 a 1.762,1.762 0 0 1 -0.048,0.623 1.015,1.015 0 0 1 -0.245,0.27 c -0.22,0.227 -2.439,2.289 -2.439,2.289 z m 8.539,-0.153 c 0.61,-0.568 1.981,-1.846 2.147,-2.017 a 1.13,1.13 0 0 0 0.285,-0.324 1.371,1.371 0 0 0 0.063,-0.563 V 17.74 h -4.135 v 0.932 h 2.372 c -0.632,0.591 -2.093,1.96 -2.231,2.1 a 1.006,1.006 0 0 0 -0.275,0.89 v 0.151 h 4.332 v -0.891 z m 2.407,0.737 h -4.026 c -0.009,-0.453 0.024,-0.55 0.235,-0.784 0.168,-0.172 2.508,-2.358 2.508,-2.358 H 17.927 V 17.9 h 3.825 a 1.757,1.757 0 0 1 -0.049,0.623 1.02,1.02 0 0 1 -0.244,0.27 c -0.22,0.227 -2.44,2.289 -2.44,2.289 h 2.8 z m -5.664,-3.722 v 3.876 h 1.316 V 17.74 h -1.205 z m 0.154,-0.043 h 1.007 V 21.66 H 16.309 Z M 13.4,12.766 a 2.682,2.682 0 0 0 1.23,-1.449 6.111,6.111 0 0 0 0.208,-0.878 4.914,4.914 0 0 0 0.053,-1.105 L 14.838,9.356 A 1.766,1.766 0 0 0 14.144,9.902 5.361,5.361 0 0 0 13.4,12.766 Z m 1.436,4.407 c 0.958,0.532 2.17,0.078 3.288,-1.374 1.4,-1.822 0.64,-3.849 -0.372,-5.149 a 4.273,4.273 0 0 0 -1.211,-1.083 4.82,4.82 0 0 1 -0.214,1.715 5.309,5.309 0 0 1 -1.491,2.242 4.292,4.292 0 0 1 -1.385,0.8 4.757,4.757 0 0 0 0.706,2.248 2.266,2.266 0 0 0 0.679,0.601 z m 0,-4.11 A 5.084,5.084 0 0 0 16.008,11.173 4.546,4.546 0 0 0 16.2,9.4 1.865,1.865 0 0 0 15.106,9.269 5.617,5.617 0 0 1 14.836,11.39 v 0.009 a 2.885,2.885 0 0 1 -1.445,1.622 c -0.005,0.319 0,0.64 0.027,0.954 a 4,4 0 0 0 1.418,-0.912 z M 7.337,9.753 A 5.644,5.644 0 0 1 8.813,6.693 5.153,5.153 0 0 1 9.236,6.293 5.3,5.3 0 0 1 10.81,5.383 4.757,4.757 0 0 0 10.21,3.221 2.436,2.436 0 0 0 9.234,2.353 C 8.34,1.941 7.234,2.265 6.177,3.426 4.683,5.062 5.366,7.249 6.323,8.654 a 4.948,4.948 0 0 0 1.014,1.099 z m 2.587,0.068 a 5.042,5.042 0 0 0 0.884,-2.81 4.083,4.083 0 0 0 -1.5,1.8 C 9.282,8.869 9.257,8.927 9.234,8.984 A 3.2,3.2 0 0 0 9,10.322 1.411,1.411 0 0 0 9.238,10.268 1.62,1.62 0 0 0 9.924,9.821 Z M 9.063,6.918 a 5.213,5.213 0 0 0 -1.4,3.061 2.187,2.187 0 0 0 1.118,0.358 3.469,3.469 0 0 1 0.324,-1.623 C 9.147,8.623 9.19,8.534 9.236,8.448 a 4.143,4.143 0 0 1 1.59,-1.709 c 0.018,-0.334 0.02,-0.67 0,-1 A 5.016,5.016 0 0 0 9.236,6.745 C 9.176,6.8 9.118,6.859 9.063,6.918 Z m 1.272,5.896 A 3.864,3.864 0 0 1 9.851,12.46 3.05,3.05 0 0 1 8.86,10.866 a 8.421,8.421 0 0 0 -1.138,0.066 4.747,4.747 0 0 0 0.855,1.9 3.7,3.7 0 0 0 1.274,0.955 4.846,4.846 0 0 0 2.042,0.455 v 0 c 0.122,0 0.242,0 0.359,-0.013 a 2.865,2.865 0 0 0 0.406,-0.981 3.259,3.259 0 0 1 -0.53,0.043 3.755,3.755 0 0 1 -1.793,-0.477 z M 9.851,10.933 C 9.598,10.901 9.34,10.88 9.083,10.871 a 2.759,2.759 0 0 0 0.768,1.288 3.171,3.171 0 0 0 2.277,0.909 2.866,2.866 0 0 0 0.571,-0.055 c 0.049,-1.229 -1.299,-1.88 -2.848,-2.08 z m 0,4.923 A 5.269,5.269 0 0 0 11.98,14.58 H 11.893 A 5.177,5.177 0 0 1 9.851,14.155 4.075,4.075 0 0 1 8.315,13.043 L 8.308,13.035 A 5.174,5.174 0 0 1 7.385,10.982 c -0.094,0.017 -0.187,0.036 -0.276,0.056 -2.151,0.487 -3.464,1.9 -3.195,3.52 0.339,1.236 1.72,2.547 4.731,1.678 0.442,-0.121 0.843,-0.246 1.206,-0.38 z M 13.872,5.381 A 3.424,3.424 0 0 1 14.33,5.627 5.292,5.292 0 0 1 16.392,8.6 C 18.379,7.89 20.068,6.007 19.862,4.718 19.566,3.185 17.4,3 15.058,3.3 a 8.555,8.555 0 0 0 -1.186,0.263 3.447,3.447 0 0 0 -2.214,1.59 4.31,4.31 0 0 1 0.756,-0.068 3.591,3.591 0 0 1 1.458,0.296 z M 14.837,8.91 A 2.909,2.909 0 0 0 13.872,7.148 2.638,2.638 0 0 0 13.478,6.878 2.434,2.434 0 0 0 12.286,6.566 2.65,2.65 0 0 0 11.397,6.722 c 0,0.045 0.01,0.089 0.016,0.134 a 2.658,2.658 0 0 0 2.459,2.012 4.844,4.844 0 0 0 0.965,0.042 z m -1.25,-2.227 a 2.987,2.987 0 0 1 0.285,0.181 3.078,3.078 0 0 1 1.189,2.029 Q 15.34,8.866 15.63,8.809 c 0.152,-0.029 0.3,-0.066 0.456,-0.11 a 4.919,4.919 0 0 0 -1.945,-2.794 2.861,2.861 0 0 0 -0.269,-0.153 3.228,3.228 0 0 0 -1.458,-0.33 4.062,4.062 0 0 0 -0.912,0.109 2.83,2.83 0 0 0 -0.121,0.96 2.848,2.848 0 0 1 0.9,-0.15 2.643,2.643 0 0 1 1.306,0.342 z"/>

</svg>
